X: 6601
T: Caught In The Net
R: hornpipe
M: 4/4
K: Dminor
A,2|A,D DC DE FE|FA cA Ad dA,|A,D DC DE FE|
FA A=B cA/G/ EC|A,D DC DE FE|FA cA Ad de|fe/f/ ed c_B GA|
GE CE DD DA,|A,D DC DE FE|FA cA Ad dA,|A,D DC DE FE|
FA A=B cA/G/ EC|A,D DC DE FE|FA cA Ad de|fe/f/ ed c_B GA|
GE CE DD DA|de/f/ ed ad da|df ed ad fa|de/f/ ed ad da|
gf/g/ fe ce ge|de/f/ ed ad da|df ed ad fa|ba/g/ fe df dc|
AG EC DA, DA|de/f/ ed ad da|df ed ad fa|de/f/ ed ad da|
gf/g/ fe ce ge|de/f/ ed ad da|df ed ad fa|ba/g/ fe df dc|
AG EC DC A,A,|A,D DC DE FE|FA cA Ad dA,|A,D DC DE FE|
FA A=B cA/G/ EC|A,D DC DE FE|FA cA Ad de|fe/f/ ed c_B GA|
GE CE DD DA,|A,D DC DE FE|FA cA Ad dA,|A,D DC DE FE|
FA A=B cA/G/ EC|A,D DC DE FE|FA cA Ad de|fe/f/ ed c_B GA|
GE CE DD DA|de/f/ ed ad da|df ed ad fa|de/f/ ed ad da|
gf/g/ fe ce ge|de/f/ ed ad da|df ed ad fa|ba/g/ fe df dc|
AG EC DA, DA|de/f/ ed ad da|df ed ad fa|de/f/ ed ad da|
gf/g/ fe ce ge|de/f/ ed ad da|df ed ad fa|ba/g/ fe df dc|
AG EC DC A,A,|A,D DC DE FE|FA cA Ad dA,|A,D DC DE FE|
FA A=B cA/G/ EC|A,D DC DE FE|FA cA Ad de|fe/f/ ed c_B GA|
GE CE DD DA,|A,D DC DE FE|FA cA Ad dA,|A,D DC DE FE|
FA A=B cA/G/ EC|A,D DC DE FE|FA cA Ad de|fe/f/ ed c_B GA|
GE DC D4|D8|D8|D8|

